X: 3
T:Banbury Bill (Bampton) (alt)
M:4/4
L:1/4
O:England; Oxfordshire; Bampton.
B:Lionel Bacon, A Handbook of Morris Dances
Z:http://www.themorrisring.org/music/handbook-morris-dances
P:A(AB3)3A
K:D
P:A
DEFD|GA   B2| EFGA/G/|FGA2   |
ADFA|de   f2|{ga}geBc|d2d2   ||
P:B
defd|cd   e2| Bcde/d/|cBAB/c/|
dAFD|G/A/BA2| B/c/dce|d2d2   ||

